packages/core/src/svgs/rare.svg

<svg width="24" height="24" viewBox="0 0 24 24" fill="none" xmlns="http://www.w3.org/2000/svg">
<g clip-path="url(#clip0_31_16815)">
<path d="M0 0H24V24H0V0Z" fill="url(#paint0_linear_31_16815)"/>
<path d="M11.5714 3H12.8571V5.14286H16.2986V9.42857H15.9043C15.5829 7.66714 13.6157 5.53714 11.7557 5.53714C10.3629 5.53714 8.82429 6.21429 8.82429 7.47C8.82429 9 10.4486 9.81429 11.5714 10.3286V13.5643C11.2071 13.4357 10.8686 13.3157 10.6029 13.1914C8.79001 12.3343 6.81001 11.22 6.85715 9C6.90429 6.57857 9.00001 5.14286 11.5714 5.14286V3Z" fill="#040708"/>
<path d="M11.5715 18.8572H12.2058L7.64148 18.8486H7.28577V14.1429H7.64148C8.09577 16.2429 9.87862 18.4286 12.3472 18.4286C14.1343 18.4286 14.9186 17.3572 14.8372 15.8058C14.7858 14.8629 13.8515 14.4386 12.8572 14.0186V10.7144C13.0091 10.7818 13.1578 10.8562 13.3029 10.9372C14.9743 11.6958 16.7143 12.6086 16.7143 14.7986C16.7143 17.5715 14.3015 18.8572 12.4286 18.8572L12.8572 18.8358V21.0001H11.5715V18.8572Z" fill="#040708"/>
</g>
<defs>
<linearGradient id="paint0_linear_31_16815" x1="4.46571" y1="4.16143" x2="19.7143" y2="22.5" gradientUnits="userSpaceOnUse">
<stop stop-color="#E7F88F"/>
<stop offset="1" stop-color="#50F0F8"/>
</linearGradient>
<clipPath id="clip0_31_16815">
<rect width="24" height="24" fill="white"/>
</clipPath>
</defs>
</svg>

<svg xmlns="http://www.w3.org/2000/svg" width="24" height="24" fill="none" viewBox="0 0 24 24"><g clip-path="url(#a)"><path fill="url(#b)" d="M0 0h24v24H0z"/><path fill="#040708" d="M11.571 3h1.286v2.143H16.3v4.286h-.395c-.321-1.762-2.288-3.892-4.148-3.892-1.393 0-2.932.677-2.932 1.933 0 1.53 1.625 2.344 2.747 2.859v3.235a11 11 0 0 1-.968-.373C8.79 12.334 6.81 11.22 6.857 9 6.904 6.579 9 5.143 11.571 5.143z"/><path fill="#040708" d="M11.572 18.857h.634L7.64 18.85h-.355v-4.706h.355c.455 2.1 2.238 4.286 4.706 4.286 1.787 0 2.572-1.072 2.49-2.623-.051-.943-.985-1.367-1.98-1.787v-3.305q.228.102.446.223c1.671.759 3.411 1.672 3.411 3.862 0 2.773-2.412 4.058-4.285 4.058l.428-.021V21h-1.285z"/></g><defs><linearGradient id="b" x1="4.466" x2="19.714" y1="4.161" y2="22.5" gradientUnits="userSpaceOnUse"><stop stop-color="#E7F88F"/><stop offset="1" stop-color="#50F0F8"/></linearGradient><clipPath id="a"><path fill="#fff" d="M0 0h24v24H0z"/></clipPath></defs></svg>
